!!!COM: Bach, Johann Sebastian
!!!OPR: Joh. Seb. Bachs vierstimmige Choralges‰nge
!!!XEN: Four-part Chorales
!!!OTL: 26. Christ lag in Todesbanden
!!!SCT: BWV 278
!!!SCA: Thematisch-systematisches Verzeichnis der musikalischen Werke Johann Sebastian Bach: Bach-Werke-Verzeichnis (Schmieder)
!!!YOR: Bach Gesellschaft Edition xxxix
!!!ENC: Steven Rasmussen
!!!CDT: 1685/3//-1750/7/28/
!!!OCY: Deutschland
!!!YEC: Copyright (c) 1994, 2000 Center for Computer Assisted Research in the Humanities
!!!YEM: Rights to all derivative editions reserved
!!!YEN: United States of America
**kern	**silbe	**kern	**silbe	**kern	**silbe	**kern	**silbe
*I:[BASSO]	*I:[BASSO]	*I:[TENORE]	*I:[TENORE]	*I:[ALTO]	*I:[ALTO]	*I:[SOPRANO]	*I:[SOPRANO]
*>[A,A,B]	*	*>[A,A,B]	*	*>[A,A,B]	*	*>[A,A,B]	*
*>A	*	*>A	*	*>A	*	*>A	*
*clefF4	*	*clefGv2	*	*clefG2	*	*clefG2	*
*k[f#]	*	*k[f#]	*	*k[f#]	*	*k[f#]	*
*e:	*	*e:	*	*e:	*	*e:	*
*M4/4	*	*M4/4	*	*M4/4	*	*M4/4	*
4E	.	8eL	.	4g	.	4b	Christder
.	.	8dJ	.	.	.	.	.
=1	=1	=1	=1	=1	=1	=1	=1
4E	.	4c#	.	4.f#	.	4a#	lagist
8DL	.	8dL	inwie-	.	.	8bL	inwie-
8C#J	.	8eJ	.	8a#	inwie-	8cc#J	.
(8BB	.	(8f#	To--der	8b	To--der	4dd	To--der
4B)	.	4g)	.	16a#LL	-des-er-	.	.
.	.	.	.	16bJJ	.	.	.
.	.	.	.	[4cc#	-ban--stan-	4ee	-des-er-
8A#	.	8f#	-des-er-	.	.	.	.
=2	=2	=2	=2	=2	=2	=2	=2
8BL	.	8f#L	-ban--stan-	8cc#]	.	4dd	-ban--stan-
8G	.	8B	.	4b	.	.	.
8E	.	16c#L	.	.	.	4cc#	.
.	.	16dJ	.	.	.	.	.
8F#J	.	8eJ	.	8a#	.	.	.
4BB;	.	(8eL	-den-den	4f#;	-den-den	4b;	-den-den
.	.	8d#;J)	.	.	.	.	.
4D#	.	4B	.	4f#	.	8bL	f√ºrund
.	.	.	.	.	.	8aJ	.
=3	=3	=3	=3	=3	=3	=3	=3
4E	.	(8B	.	(8f#	.	4g	un-hat
.	.	4c)	.	4e)	.	.	.
4F#	.	.	.	.	.	4a	-seruns
.	.	16BLL	.	16d#LL	.	.	.
.	.	16AJJ	.	16c#JJ	.	.	.
8GL	.	4B	.	8BL	.	8bL	S√ºnd'bracht
8F#	.	.	.	8d#J	.	8aJ	.
8GJ	.	4B	.	4e	.	4g	ge-das
8A	.	.	.	.	.	.	.
=4	=4	=4	=4	=4	=4	=4	=4
4B	.	4.B	.	8eL	.	8f#L	-ge-Le-
.	.	.	.	16d#L	.	8eJ	.
.	.	.	.	16c#JJ	.	.	.
4BB	.	.	.	4d#	.	4f#	.
.	.	8A	.	.	.	.	.
4E;	.	4G;	.	4B;	.	4e;	-ben,-ben.
=:|!	=:|!	=:|!	=:|!	=:|!	=:|!	=:|!	=:|!
*>B	*	*>B	*	*>B	*	*>B	*
4r	.	4r	.	4r	.	4r	.
=5	=5	=5	=5	=5	=5	=5	=5
4.E	.	8GL	.	4B	.	8eL	Dess
.	.	8AJ	.	.	.	8f#J	.
.	.	4B	.	4e	.	4g	wir
8D	.	.	.	.	.	.	.
8CL	.	4E	.	4.e	.	4a	sol-
8BBJ	.	.	.	.	.	.	.
8C#L	.	4A	.	.	.	8eL	-len
8D#J	.	.	.	8B	.	8f#J	.
=6	=6	=6	=6	=6	=6	=6	=6
8EL	.	8GL	.	8BL	.	4g	fr√∂h-
8DJ	.	16AL	.	16cL	.	.	.
.	.	16BJJ	.	16dJJ	.	.	.
4C	.	4c	.	4e	.	4a	-lich
4BB;	.	4F#;	.	4d#;	.	4b;	sein,
8BL	.	4d#	.	4f#	.	4b	Gott
8AJ	.	.	.	.	.	.	.
=7	=7	=7	=7	=7	=7	=7	=7
8GL	.	8eL	.	4b	.	4ee	lo-
16F#L	.	16f#L	.	.	.	.	.
16EJ	.	16gJ	.	.	.	.	.
8F#J	.	8aJ	.	4a	.	4dd	-ben
8A	.	8f#	.	.	.	.	.
8G#	.	8B	und	8b	und	4ee	und
8c#	.	8e	ihm	8g#	ihm	.	.
8A#L	.	8c#L	dank-	[4cc#	dank-	8ff#L	ihm
8F#J	.	16BL	.	.	.	8eeJ	.
.	.	16A#JJ	.	.	.	.	.
=8	=8	=8	=8	=8	=8	=8	=8
8BL	.	8BL	.	(8cc#]	.	4dd	dank-
8GJ	.	8dJ	.	4b)	.	.	.
8EL	.	8gL	-bar	.	.	4cc#	-bar
8F#J	.	8f#J	.	8a#	-bar	.	.
4BB;	.	4d;	.	4f#;	.	4b;	sein,
4E	.	4e	.	4g	.	4cc#	und
=9	=9	=9	=9	=9	=9	=9	=9
4D	.	4A	.	4f#	.	8ddL	sin-
.	.	.	.	.	.	8ccJ	.
8GGL	.	8BL	.	4d	.	8bL	-gen
8AAJ	.	8AJ	.	.	.	8ccJ	.
8BBL	Hal-	4.G	Hal-	2d	Hal-	4dd	Hal-
8CJ	.	.	.	.	.	.	.
[4D	.	.	.	.	.	4a	-le-
.	.	8F#	-le-	.	.	.	.
=10	=10	=10	=10	=10	=10	=10	=10
8D]	.	(4B	-lu-	4.e	-le-	(4g	-lu-
8C#	-le-	.	.	.	.	.	.
8DL	-lu-	4A)	.	.	.	4f#)	.
8F#J	.	.	.	8d	-lu-	.	.
2A;	-ja,	2A;	-ja,	2c#;	-ja,	2e;	-ja,
=11	=11	=11	=11	=11	=11	=11	=11
8A	Hal-	4B	Hal-	8d#L	.	4b	Hal-
4G	.	.	.	8eJ	.	.	.
.	.	8c#L	.	8eL	.	4a	-le-
8F#	.	8d#J	.	8f#J	.	.	.
8E	.	8eL	.	8B	.	(4g	-lu-
8C	-le-	8GJ	.	4e	.	.	.
8AAL	-lu-	8cn	-le-	.	.	4f#)	.
8BBJ	.	16BLL	-lu-	8d#	.	.	.
.	.	16AJJ	.	.	.	.	.
=12	=12	=12	=12	=12	=12	=12	=12
2.E;	-ja.	2.G#;	-ja.	2.B;	ja.	2.e;	-ja.
==|!	==|!	==|!	==|!	==|!	==|!	==|!	==|!
*-	*-	*-	*-	*-	*-	*-	*-
!!!RWG: Key is interpreted using the Humdrum key tool.
!!!END: 1994/05/11
!!!EMD: Converted from MuseData to Humdrum Dec 19, 2000, by Andreas Kornstaedt using muse2kern.
!!!EED: Craig Stuart Sapp
!!!EEV: 2024/03/31
!!!ONB: Some non-unicode characters
